images/TOP.svg

<svg height="250" viewBox="0 0 250 250" width="250" xmlns="http://www.w3.org/2000/svg"><path d="m250 125c0 69.035156-55.964844 125-125 125s-125-55.964844-125-125 55.964844-125 125-125 125 55.964844 125 125zm0 0" fill="#f8cf03"/><path d="m193.890625 77c-2.914063-2.914062-6.757813-4.371094-11.527344-4.375h-57.222656c-4.765625 0-8.609375 1.457031-11.527344 4.375-2.914062 2.917969-4.375 6.757812-4.375 11.523438v95.375c0 4.769531 1.460938 8.609374 4.375 11.527343 2.917969 2.914063 6.761719 4.375 11.527344 4.375s8.609375-1.460937 11.523437-4.375c2.917969-2.917969 4.375-6.757812 4.375-11.527343v-71.523438c0-5.296875 2.652344-7.949219 7.949219-7.949219h33.382813c4.765625 0 8.609375-1.460937 11.527344-4.375 2.914062-2.917969 4.371093-6.757812 4.375-11.527343-.015626-4.773438-1.476563-8.613282-4.382813-11.523438zm-104.910156 0c-2.914063-2.914062-6.753907-4.371094-11.523438-4.375h-9.535156c-4.765625 0-8.609375 1.457031-11.527344 4.375-2.914062 2.917969-4.375 6.757812-4.375 11.523438 0 4.769531 1.460938 8.609374 4.375 11.527343 2.917969 2.914063 6.761719 4.375 11.527344 4.375h9.53125c4.769531 0 8.609375-1.460937 11.527344-4.375 2.914062-2.917969 4.375-6.757812 4.375-11.527343-.007813-4.773438-1.46875-8.613282-4.375-11.523438zm0 0" fill="#fff"/></svg>

<svg xmlns="http://www.w3.org/2000/svg" xmlns:xlink="http://www.w3.org/1999/xlink" width="250px" height="250px" viewBox="0 0 250 250" version="1.1">
<g id="surface1">
<path style=" stroke:none;fill-rule:nonzero;fill:rgb(97.254902%,81.176472%,1.176471%);fill-opacity:1;" d="M 250 125 C 250 194.035156 194.035156 250 125 250 C 55.964844 250 0 194.035156 0 125 C 0 55.964844 55.964844 0 125 0 C 194.035156 0 250 55.964844 250 125 Z M 250 125 "/>
<path style=" stroke:none;fill-rule:nonzero;fill:rgb(100%,100%,100%);fill-opacity:1;" d="M 193.890625 77 C 190.976562 74.085938 187.132812 72.628906 182.363281 72.625 L 125.140625 72.625 C 120.375 72.625 116.53125 74.082031 113.613281 77 C 110.699219 79.917969 109.238281 83.757812 109.238281 88.523438 L 109.238281 183.898438 C 109.238281 188.667969 110.699219 192.507812 113.613281 195.425781 C 116.53125 198.339844 120.375 199.800781 125.140625 199.800781 C 129.90625 199.800781 133.75 198.339844 136.664062 195.425781 C 139.582031 192.507812 141.039062 188.667969 141.039062 183.898438 L 141.039062 112.375 C 141.039062 107.078125 143.691406 104.425781 148.988281 104.425781 L 182.371094 104.425781 C 187.136719 104.425781 190.980469 102.964844 193.898438 100.050781 C 196.8125 97.132812 198.269531 93.292969 198.273438 88.523438 C 198.257812 83.75 196.796875 79.910156 193.890625 77 Z M 88.980469 77 C 86.066406 74.085938 82.226562 72.628906 77.457031 72.625 L 67.921875 72.625 C 63.15625 72.625 59.3125 74.082031 56.394531 77 C 53.480469 79.917969 52.019531 83.757812 52.019531 88.523438 C 52.019531 93.292969 53.480469 97.132812 56.394531 100.050781 C 59.3125 102.964844 63.15625 104.425781 67.921875 104.425781 L 77.453125 104.425781 C 82.222656 104.425781 86.0625 102.964844 88.980469 100.050781 C 91.894531 97.132812 93.355469 93.292969 93.355469 88.523438 C 93.347656 83.75 91.886719 79.910156 88.980469 77 Z M 88.980469 77 "/>
</g>
</svg>
